svg/volume_equal.svg

<svg xmlns="http://www.w3.org/2000/svg" viewBox="0 0 24 24"><path d="M3 9h4l5-5v16l-5-5H3zm11 4h8v2h-8m0-6h8v2h-8Z"/></svg>

<svg xmlns="http://www.w3.org/2000/svg" id="mdi-volume-equal" viewBox="0 0 24 24"><path d="M3 9H7L12 4V20L7 15H3V9M14 13H22V15H14M14 9H22V11H14Z" /></svg>
